src/actions/24/format-text-uppercase.svg

<svg xmlns="http://www.w3.org/2000/svg" viewBox="0 0 24 24">
  <defs id="defs3051">
    <style type="text/css" id="current-color-scheme">
      .ColorScheme-Text {
        color:#2e3440;
      }
      .ColorScheme-Highlight {
        color:#88c0d0;
      }
      </style>
  </defs>
 <path 
     style="fill:currentColor;fill-opacity:1;stroke:none" 
     d="M 5.828125 8 L 1.6542969 20 L 2.6621094 20 L 4.1582031 16 L 9.3652344 16 L 10.855469 20 L 12 20 L 7.7695312 8 L 5.828125 8 z M 13 8 L 13 20 L 14 20 L 19 20 A 3.5 3.5 0 0 0 22.5 16.5 A 3.5 3.5 0 0 0 20.066406 13.169922 A 3 3 0 0 0 21 11 A 3 3 0 0 0 18 8 L 14 8 L 13 8 z M 14 9 L 18 9 A 2 2 0 0 1 20 11 A 2 2 0 0 1 18 13 L 14 13 L 14 9 z M 6.7675781 9.0292969 L 8.9921875 15 L 4.5332031 15 L 6.7675781 9.0292969 z M 14 14 L 19 14 A 2.5 2.5 0 0 1 21.5 16.5 A 2.5 2.5 0 0 1 19 19 L 14 19 L 14 14 z "
     class="ColorScheme-Text"
     />
 <path 
     style="fill:currentColor;fill-opacity:1;stroke:none" 
     d="M 17 3 L 14 7 L 20 7 L 17 3 z "
     class="ColorScheme-Highlight"
     />
</svg>

<svg viewBox="0 0 24 24" xmlns="http://www.w3.org/2000/svg">
 <defs>
  <style type="text/css">.ColorScheme-Text {
        color:#2e3440;
      }
      .ColorScheme-Highlight {
        color:#88c0d0;
      }</style>
 </defs>
 <path class="ColorScheme-Text" d="m5.8281 8-4.1738 12h1.0078l1.4961-4h5.207l1.4902 4h1.1445l-4.2305-12h-1.9414zm7.1719 0v12h1 5a3.5 3.5 0 0 0 3.5-3.5 3.5 3.5 0 0 0-2.4336-3.3301 3 3 0 0 0 0.93359-2.1699 3 3 0 0 0-3-3h-4-1zm1 1h4a2 2 0 0 1 2 2 2 2 0 0 1-2 2h-4v-4zm-7.2324 0.029297 2.2246 5.9707h-4.459l2.2344-5.9707zm7.2324 4.9707h5a2.5 2.5 0 0 1 2.5 2.5 2.5 2.5 0 0 1-2.5 2.5h-5v-5z" fill="currentColor"/>
 <path class="ColorScheme-Highlight" d="m17 3-3 4h6l-3-4z" fill="currentColor"/>
</svg>
